img/menu_header_short.svg

<svg xmlns="http://www.w3.org/2000/svg" fill="none" viewBox="0 0 40 29"><path fill="#fff" d="M0 0h40v4H0V0zM0 12h40v4H0v-4zM0 25h40v4H0v-4z"/></svg>

<svg width="40" height="29" viewBox="0 0 40 29" fill="none" xmlns="http://www.w3.org/2000/svg">
<path d="M0 0H40V4H0V0Z" fill="white"/>
<path d="M0 12H40V16H0V12Z" fill="white"/>
<path d="M0 25H40V29H0V25Z" fill="white"/>
</svg>
